static/images/icons/mind_map.svg

<svg
	width="80"
	height="80"
	viewBox="0 0 80 80"
	fill="none"
	xmlns="http://www.w3.org/2000/svg"
>
	<path
		d="M10.4092 50.4097C15.8118 50.4097 20.2635 46.272 20.7687 41H24.452C24.6786 44.5475 26.0894 47.7705 28.3017 50.2839L25.6945 52.8917C21.6085 49.5206 15.5349 49.7435 11.7158 53.563C7.65723 57.6216 7.65723 64.2256 11.7158 68.2842C13.7451 70.3135 16.4111 71.3281 19.0762 71.3281C21.7422 71.3281 24.4082 70.3135 26.4375 68.2842C30.2565 64.4642 30.4785 58.3909 27.1086 54.3058L29.7158 51.698C32.2292 53.9105 35.4523 55.3214 39 55.548V59.2313C33.7284 59.7366 29.5908 64.1882 29.5908 69.5903C29.5908 75.3301 34.2607 80 40 80C45.7393 80 50.4092 75.3301 50.4092 69.5903C50.4092 64.1882 46.2716 59.7366 41 59.2313V55.548C44.5477 55.3214 47.7708 53.9105 50.2842 51.698L52.8914 54.3058C49.5215 58.3909 49.7435 64.4642 53.5625 68.2842C55.5918 70.3135 58.2578 71.3286 60.9229 71.3286C63.5889 71.3286 66.2549 70.3135 68.2842 68.2842C72.3428 64.2256 72.3428 57.6216 68.2842 53.563C64.4643 49.7426 58.3907 49.5214 54.3055 52.8917L51.6983 50.2839C53.9106 47.7705 55.3214 44.5475 55.548 41H59.2313C59.7365 46.272 64.1882 50.4097 69.5908 50.4097C75.3301 50.4097 80 45.7397 80 40C80 34.2603 75.3301 29.5903 69.5908 29.5903C64.1882 29.5903 59.7365 33.728 59.2313 39H55.548C55.3214 35.4525 53.9106 32.2295 51.6983 29.7161L54.3054 27.1083C56.2204 28.6884 58.5712 29.4814 60.9229 29.4814C63.5889 29.4814 66.2549 28.4663 68.2842 26.437C72.3428 22.3784 72.3428 15.7744 68.2842 11.7158C64.2256 7.65674 57.6211 7.65771 53.5625 11.7158C49.7435 15.5358 49.5215 21.6091 52.8914 25.6942L50.2842 28.302C47.7708 26.0895 44.5477 24.6786 41 24.452V20.7687C46.2716 20.2634 50.4092 15.8118 50.4092 10.4097C50.4092 4.66992 45.7393 0 40 0C34.2607 0 29.5908 4.66992 29.5908 10.4097C29.5908 15.8118 33.7284 20.2634 39 20.7687V24.452C35.4523 24.6786 32.2292 26.0895 29.7158 28.302L27.1086 25.6942C30.4785 21.6091 30.2565 15.5358 26.4375 11.7158C22.3779 7.65674 15.7734 7.65771 11.7158 11.7158C7.65723 15.7744 7.65723 22.3784 11.7158 26.437C13.7451 28.4663 16.4111 29.481 19.0762 29.481C21.4286 29.481 23.7796 28.6883 25.6946 27.1083L28.3017 29.7161C26.0894 32.2295 24.6786 35.4525 24.452 39H20.7687C20.2635 33.728 15.8118 29.5903 10.4092 29.5903C4.66992 29.5903 0 34.2603 0 40C0 45.7397 4.66992 50.4097 10.4092 50.4097ZM25.0234 66.8701C21.7432 70.1504 16.4082 70.1484 13.1299 66.8701C9.85059 63.5913 9.85059 58.2559 13.1299 54.9771C14.7695 53.3374 16.9229 52.5181 19.0771 52.5181C21.2305 52.5181 23.3838 53.3379 25.0234 54.9771C28.3018 58.2559 28.3018 63.5913 25.0234 66.8701ZM48.4092 69.5903C48.4092 74.2275 44.6367 78 40 78C35.3633 78 31.5908 74.2275 31.5908 69.5903C31.5908 64.9531 35.3633 61.1807 40 61.1807C44.6367 61.1807 48.4092 64.9531 48.4092 69.5903ZM66.8701 54.9771C70.1494 58.2559 70.1494 63.5913 66.8701 66.8701C63.5918 70.1489 58.2568 70.1509 54.9766 66.8701C51.6982 63.5913 51.6982 58.2559 54.9766 54.9771C58.2568 51.6968 63.5918 51.6987 66.8701 54.9771ZM69.5908 31.5903C74.2275 31.5903 78 35.3628 78 40C78 44.6372 74.2275 48.4097 69.5908 48.4097C64.9531 48.4097 61.1807 44.6372 61.1807 40C61.1807 35.3628 64.9531 31.5903 69.5908 31.5903ZM54.9766 13.1299C56.6162 11.4902 58.7695 10.6709 60.9229 10.6709C63.0771 10.6709 65.2305 11.4902 66.8701 13.1299C70.1494 16.4087 70.1494 21.7441 66.8701 25.0229C63.5918 28.3022 58.2568 28.3022 54.9766 25.0229C51.6982 21.7441 51.6982 16.4087 54.9766 13.1299ZM31.5908 10.4097C31.5908 5.77246 35.3633 2 40 2C44.6367 2 48.4092 5.77246 48.4092 10.4097C48.4092 15.0469 44.6367 18.8193 40 18.8193C35.3633 18.8193 31.5908 15.0469 31.5908 10.4097ZM13.1299 25.0229C9.85059 21.7441 9.85059 16.4087 13.1299 13.1299C14.7695 11.4902 16.9229 10.6709 19.0771 10.6709C21.2305 10.6709 23.3838 11.4902 25.0234 13.1299C28.3018 16.4087 28.3018 21.7441 25.0234 25.0229C21.7432 28.3027 16.4082 28.3018 13.1299 25.0229ZM40 26.4014C47.498 26.4014 53.5986 32.5015 53.5986 40C53.5986 47.4985 47.498 53.5986 40 53.5986C32.502 53.5986 26.4014 47.4985 26.4014 40C26.4014 32.5015 32.502 26.4014 40 26.4014ZM10.4092 31.5903C15.0469 31.5903 18.8193 35.3628 18.8193 40C18.8193 44.6372 15.0469 48.4097 10.4092 48.4097C5.77246 48.4097 2 44.6372 2 40C2 35.3628 5.77246 31.5903 10.4092 31.5903Z"
		fill="currentColor"
	/>
</svg>

<svg xmlns="http://www.w3.org/2000/svg" fill="currentColor" viewBox="0 0 80 80">
	<path d="M10.41 50.41c5.402 0 9.854-4.138 10.359-9.41h3.683a15.512 15.512 0 003.85 9.284l-2.607 2.608c-4.087-3.371-10.16-3.149-13.98.671-4.058 4.059-4.058 10.663 0 14.721a10.378 10.378 0 007.361 3.044c2.666 0 5.332-1.014 7.361-3.044 3.82-3.82 4.041-9.893.672-13.978l2.607-2.608A15.511 15.511 0 0039 55.548v3.683c-5.272.506-9.41 4.957-9.41 10.36C29.59 75.33 34.26 80 40 80s10.41-4.67 10.41-10.41c0-5.402-4.138-9.853-9.41-10.359v-3.683a15.511 15.511 0 009.284-3.85l2.607 2.608c-3.37 4.085-3.148 10.158.672 13.978a10.378 10.378 0 007.36 3.045c2.666 0 5.332-1.015 7.361-3.045 4.059-4.058 4.059-10.662 0-14.721-3.82-3.82-9.893-4.042-13.979-.671l-2.607-2.608A15.512 15.512 0 0055.548 41h3.683c.505 5.272 4.957 9.41 10.36 9.41C75.33 50.41 80 45.74 80 40s-4.67-10.41-10.41-10.41c-5.402 0-9.854 4.138-10.359 9.41h-3.683a15.512 15.512 0 00-3.85-9.284l2.607-2.608a10.382 10.382 0 006.618 2.373c2.666 0 5.332-1.015 7.361-3.044 4.059-4.059 4.059-10.663 0-14.721-4.058-4.06-10.663-4.058-14.722 0-3.819 3.82-4.04 9.893-.67 13.978l-2.608 2.608A15.511 15.511 0 0041 24.452v-3.683c5.272-.506 9.41-4.957 9.41-10.36C50.41 4.67 45.74 0 40 0S29.59 4.67 29.59 10.41c0 5.402 4.138 9.853 9.41 10.359v3.683a15.511 15.511 0 00-9.284 3.85l-2.607-2.608c3.37-4.085 3.147-10.158-.672-13.978-4.06-4.06-10.664-4.058-14.721 0-4.059 4.058-4.059 10.662 0 14.721a10.378 10.378 0 007.36 3.044c2.353 0 4.704-.793 6.619-2.373l2.607 2.608A15.512 15.512 0 0024.452 39h-3.683c-.505-5.272-4.957-9.41-10.36-9.41C4.67 29.59 0 34.26 0 40s4.67 10.41 10.41 10.41zm14.613 16.46c-3.28 3.28-8.615 3.278-11.893 0-3.28-3.279-3.28-8.614 0-11.893a8.383 8.383 0 015.947-2.459c2.153 0 4.307.82 5.946 2.46 3.279 3.278 3.279 8.613 0 11.892zm23.386 2.72C48.41 74.228 44.637 78 40 78c-4.637 0-8.41-3.772-8.41-8.41 0-4.637 3.773-8.41 8.41-8.41 4.637 0 8.41 3.773 8.41 8.41zM66.87 54.977c3.28 3.279 3.28 8.614 0 11.893-3.278 3.279-8.613 3.28-11.893 0-3.279-3.279-3.279-8.614 0-11.893 3.28-3.28 8.615-3.278 11.893 0zm2.72-23.387c4.638 0 8.41 3.773 8.41 8.41 0 4.637-3.772 8.41-8.41 8.41-4.637 0-8.41-3.773-8.41-8.41 0-4.637 3.773-8.41 8.41-8.41zM54.978 13.13a8.382 8.382 0 015.946-2.46c2.154 0 4.308.82 5.947 2.46 3.28 3.279 3.28 8.614 0 11.893-3.278 3.28-8.613 3.28-11.893 0-3.279-3.279-3.279-8.614 0-11.893zM31.59 10.41C31.59 5.772 35.363 2 40 2c4.637 0 8.41 3.772 8.41 8.41 0 4.637-3.773 8.41-8.41 8.41-4.637 0-8.41-3.773-8.41-8.41zM13.13 25.023c-3.28-3.279-3.28-8.614 0-11.893a8.383 8.383 0 015.947-2.46c2.153 0 4.307.82 5.946 2.46 3.279 3.279 3.279 8.614 0 11.893-3.28 3.28-8.615 3.279-11.893 0zM40 26.4c7.498 0 13.599 6.1 13.599 13.599 0 7.498-6.101 13.599-13.599 13.599S26.401 47.499 26.401 40c0-7.498 6.101-13.599 13.599-13.599zm-29.59 5.19c4.637 0 8.41 3.772 8.41 8.409 0 4.637-3.773 8.41-8.41 8.41C5.771 48.41 2 44.637 2 40c0-4.637 3.772-8.41 8.41-8.41z"/>
</svg>
